archdroid-icon-theme/Archdroid-Cyan/places/scalable/folder-ubuntu.svg

<?xml version="1.0" encoding="UTF-8" standalone="no"?>
<svg
   xmlns:dc="http://purl.org/dc/elements/1.1/"
   xmlns:cc="http://creativecommons.org/ns#"
   xmlns:rdf="http://www.w3.org/1999/02/22-rdf-syntax-ns#"
   xmlns:svg="http://www.w3.org/2000/svg"
   xmlns="http://www.w3.org/2000/svg"
   xmlns:sodipodi="http://sodipodi.sourceforge.net/DTD/sodipodi-0.dtd"
   xmlns:inkscape="http://www.inkscape.org/namespaces/inkscape"
   fill="#00BCD4"
   width="48"
   height="48"
   viewBox="0 0 48 48"
   id="svg2"
   version="1.1"
   inkscape:version="0.91 r13725"
   sodipodi:docname="folder-ubuntu.svg">
  <metadata
     id="metadata10">
    <rdf:RDF>
      <cc:Work
         rdf:about="">
        <dc:format>image/svg+xml</dc:format>
        <dc:type
           rdf:resource="http://purl.org/dc/dcmitype/StillImage" />
        <dc:title />
      </cc:Work>
    </rdf:RDF>
  </metadata>
  <defs
     id="defs8" />
  <sodipodi:namedview
     pagecolor="#ffffff"
     bordercolor="#666666"
     borderopacity="1"
     objecttolerance="10"
     gridtolerance="10"
     guidetolerance="10"
     inkscape:pageopacity="0"
     inkscape:pageshadow="2"
     inkscape:window-width="1366"
     inkscape:window-height="713"
     id="namedview6"
     showgrid="false"
     inkscape:zoom="4"
     inkscape:cx="-16.53152"
     inkscape:cy="48.172023"
     inkscape:window-x="0"
     inkscape:window-y="30"
     inkscape:window-maximized="1"
     inkscape:current-layer="svg2"
     inkscape:snap-bbox="true"
     inkscape:bbox-paths="true"
     inkscape:snap-bbox-edge-midpoints="false"
     inkscape:bbox-nodes="true" />
  <path
     d="M 8 8 C 5.79 8 4.0195313 9.79 4.0195312 12 L 4 36 C 4 38.21 5.79 40 8 40 L 40 40 C 42.21 40 44 38.21 44 36 L 44 16 C 44 13.79 42.21 12 40 12 L 24 12 L 20 8 L 8 8 z M 29 17 C 34.522869 17 39 21.47699 39 27 C 39 32.522587 34.522869 37 29 37 C 23.477132 37 19 32.522657 19 27 C 19 21.47699 23.477131 17 29 17 z M 32.564453 19.787109 C 32.048268 19.723064 31.520682 19.964411 31.244141 20.443359 C 30.875559 21.081674 31.094036 21.899067 31.732422 22.267578 C 32.370948 22.636371 33.18813 22.417612 33.556641 21.779297 C 33.925364 21.140699 33.705003 20.323801 33.066406 19.955078 C 32.906792 19.862933 32.736515 19.808458 32.564453 19.787109 z M 29 21.199219 C 28.076712 21.199219 27.204527 21.416959 26.429688 21.800781 L 27.357422 23.462891 C 27.856743 23.230552 28.412908 23.099609 29 23.099609 C 31.037429 23.099609 32.709577 24.662376 32.884766 26.654297 L 34.787109 26.626953 C 34.693479 25.156296 34.049782 23.835866 33.0625 22.865234 C 32.554924 23.057004 31.969691 23.027039 31.462891 22.734375 C 30.955456 22.441429 30.636034 21.946448 30.548828 21.410156 C 30.055504 21.273631 29.536857 21.199219 29 21.199219 z M 25.783203 22.173828 C 24.614805 22.954453 23.745798 24.149172 23.384766 25.546875 C 23.806476 25.890622 24.074219 26.41319 24.074219 27 C 24.074219 27.586669 23.804593 28.10945 23.382812 28.453125 C 23.743775 29.85097 24.614804 31.045617 25.783203 31.826172 L 26.757812 30.191406 C 25.755149 29.485852 25.099609 28.319669 25.099609 27 C 25.099609 25.680543 25.75515 24.51429 26.757812 23.808594 L 25.783203 22.173828 z M 22.199219 25.666016 C 21.461703 25.666016 20.865234 26.262484 20.865234 27 C 20.865234 27.737234 21.461703 28.335937 22.199219 28.335938 C 22.936453 28.335938 23.535156 27.737234 23.535156 27 C 23.535156 26.262413 22.936523 25.666016 22.199219 25.666016 z M 32.884766 27.345703 C 32.709718 29.337907 31.037429 30.900391 29 30.900391 C 28.412837 30.900391 27.856813 30.769449 27.357422 30.537109 L 26.429688 32.199219 C 27.204597 32.582899 28.076711 32.800781 29 32.800781 C 29.536856 32.800781 30.055434 32.726364 30.548828 32.589844 C 30.636038 32.053552 30.955386 31.558783 31.462891 31.265625 C 31.969691 30.973102 32.554924 30.944879 33.0625 31.136719 C 34.049712 30.166017 34.693623 28.843705 34.787109 27.373047 L 32.884766 27.345703 z M 32.234375 31.564453 C 32.062319 31.585799 31.892018 31.640276 31.732422 31.732422 C 31.093825 32.101074 30.87563 32.918325 31.244141 33.556641 C 31.612864 34.195238 32.429762 34.413574 33.068359 34.044922 C 33.706745 33.67634 33.925293 32.859229 33.556641 32.220703 C 33.280204 31.741967 32.750543 31.500414 32.234375 31.564453 z "
     id="path3382" />
</svg>

<svg xmlns="http://www.w3.org/2000/svg" fill="#00BCD4" viewBox="0 0 48 48"><path d="m8 8c-2.21 0-3.98 1.79-3.98 4l-.02 24c0 2.21 1.79 4 4 4h32c2.21 0 4-1.79 4-4v-20c0-2.21-1.79-4-4-4h-16l-4-4h-12m21 9c5.523 0 10 4.477 10 10 0 5.523-4.477 10-10 10-5.523 0-10-4.477-10-10 0-5.523 4.477-10 10-10m3.564 2.787c-.516-.064-1.044.177-1.32.656-.369.638-.15 1.456.488 1.824.639.369 1.456.15 1.824-.488.369-.639.148-1.455-.49-1.824-.16-.092-.33-.147-.502-.168m-3.564 1.412c-.923 0-1.795.218-2.57.602l.928 1.662c.499-.232 1.055-.363 1.643-.363 2.037 0 3.71 1.563 3.885 3.555l1.902-.027c-.094-1.471-.737-2.791-1.725-3.762-.508.192-1.093.162-1.6-.131-.507-.293-.827-.788-.914-1.324-.493-.137-1.012-.211-1.549-.211m-3.217.975c-1.168.781-2.037 1.975-2.398 3.373.422.344.689.866.689 1.453 0 .587-.27 1.109-.691 1.453.361 1.398 1.232 2.592 2.4 3.373l.975-1.635c-1-.706-1.658-1.872-1.658-3.191 0-1.319.656-2.486 1.658-3.191l-.975-1.635m-3.584 3.492c-.738 0-1.334.596-1.334 1.334 0 .737.596 1.336 1.334 1.336.737 0 1.336-.599 1.336-1.336 0-.738-.599-1.334-1.336-1.334m10.686 1.68c-.175 1.992-1.847 3.555-3.885 3.555-.587 0-1.143-.131-1.643-.363l-.928 1.662c.775.384 1.647.602 2.57.602.537 0 1.055-.074 1.549-.211.087-.536.407-1.031.914-1.324.507-.293 1.092-.321 1.6-.129.987-.971 1.631-2.293 1.725-3.764l-1.902-.027m-.65 4.219c-.172.021-.342.076-.502.168-.639.369-.857 1.186-.488 1.824.369.639 1.186.857 1.824.488.638-.369.857-1.186.488-1.824-.276-.479-.806-.72-1.322-.656"/></svg>
